X: 4085
T: MY LOVE IS ON THE OCEAN.
R: Reel.
%R: reel
B: James Kerr "Merry Melodies" v.4 p.11 #85
Z: 2016 John Chambers <jc:trillian.mit.edu>
M: C|
L: 1/8
K: D
|:\
(eA)AA (BA)Bd | egfd e2(dB) |\
(eA)AA (BA)Bd | d2(ed) (Bd)d2 :|\
ggge fffd | d2(ed) (Bd)d2 ||
|:\
fa^ga baga | g2fd e2dB |\
[1 fa^ga baga | d2(ed) (Bd)d2 :|\
[2 ggge fffd | d2(ed) (Bd)d2 |]

%%sep 1 1 500
%%sep 1 1 500

